X:399
M:C
L:1/8
K:A
(A/B/c B>A (ce c2|d>cB>A G<B E2|A/B/c B>A c<e c2|1 A/G/F/E/ F>G A2 A>B:|2
a/g/f/e/ f>g a2||
e/f/g|a>ef>e a>A d/c/B/A/|G>BE>B G>BE>g|a>ef>e a>A d/c/B/A/|
a/g/f/e/ f>g a2 a z|]

